X:4587411
T:Valse Louise
C:Aldor Morin or Fortunat Malouin (maybe)
S:Based on a transcription by the great Maine Canadian fiddler Don Roy,
S:posted on the website of his band $2Fiddle~icious,$0 Maine's Largest Fiddle
S:Orchestra <https://fiddleicious.com/tune/valse-louise/> in 2015.
H:I am presenting several versions of the tune on this website as it
H:seems to have developed more variations than many tunes. This one
H:probably comes closest to how it's typically played by fiddlers in
H:New England who are interested in Canadian fiddling.
N:From NH Country Dance (URL below), along with many New England, Canadian & Swedish
N:tunes, and resources for abc notation and New England traditional music and dance.
%
N: Note #1: To preserve formatting (font, spacing, etc.), use the
N: file header at the URL below; just follow accompanying instructions.
%
N: Note #2: This abc code is optimized for use with abcm2ps, which is used by
N: EasyABC and other abc apps. To abc2svg for display or printing look to see if there
N: is a file optimized for abc2svg. If not you may need to adjust the spacing in places.
%
Z:abc-transcription Peter Yarensky. I rely heavily on careful listening to the
Z:named sources aided by software to hear details. While not perfect, known
Z:substantial differences from other written sources receive careful attention.
Z:abc-copyright Peter Yarensky. You may reproduce this tune freely but
Z:please include the entire abc file including all the notes.
%%writefields HQSD
F:Tunes Home Page - https://fiddle-tunes.nhcountrydance.com/
F:abc Header & its Usage - https://fiddle-tunes.nhcountrydance.com/header-page/
M:3/4
L:1/8
R:Waltz
G:Couples Dances ~ Waltzes ~ Canadian
N: Tune Tags ~ Waltz, Canadian, Aldor Morin
K:D
%%textfont Palatino-Italic 14
%%text Based on a version from Don Roy
%%textfont Palatino-Roman 16
%%
"D" f3 e fg       | "D/C#" f3 e fg | "D/B" ff f2 d2    | "D/A" A3 B cd |\
"Em" e3 d ef      | "Em/D" e3 d ef | "Em/C#" ee e2 d2  | "A7" A2 Bc de |
"D" f3 e fg       | "D/C#" f3 e fg | "D/B" ff f2 d2    | "D/A" A6- |\
"Em" AA Bc de     | "A" f2 fe cA   | "E7" BA ^GA cB    | "A7" AF G2 E2 |
"D" f3 e fg       | "D/C#" f3 e fg | "D/B" ff f2 d2    | "D/A" A3 B cd |\
"Em" e3 d ef      | "Em7" e3 d ef  | "Em6" ee e2 d2    | "A7" A6 |
"D" ((3ABA) F2 A2 | "D7" d4 =c2    | "G" ((3BcB) G2 B2 | "G#dim" e4 d2 |\
"A7" CD EF GA     | "A7" B4 c2     | "D" d2 dc de      | "D" d3 ||
[K:G] |: B =c^c   |\
"G" dB GD GB      | "Em7" dB GD GB |"Am7" d2 c3 B      | "Am6" c3 B AB |
"D" cA FD FA      | "D7" cA FD Fd  | "G" c2 B3 ^A      | "G" B3 G Bd |
"G" gd BG Bd      | "G7" gd BG Bd  | "C" f2 e3 ^d      | "C6" e4 g2 |
"D7" ((3fgf) ((3efe) ((3ded) | "D7" ((3cdc) ((3BcB) ((3ABA) |"G" G2 BG Bd \
|1 "G" g3        :|2 "G" g6  |]
%%vskip 20

